X:1
T:BEGINNING BACH
T:BEGINNING BACH
T:Version 2
T:By: Johann Sebastian Bach Arr. By: Riordan George
C:By: Johann Sebastian Bach Arr. By: Riordaan George
L:1/8
Q:1/4=116
M:3/4
K:G
V:1 treble nm="Piano" snm="Pno."
V:1
!f!"^Allegretto" !breath!d2 d2 d2 | B2 AB G2 | A2 d2 c2 | B4 A2 | d2 cB AG | e2 cB AG | %6
 F2 (ED) F2 | G6 | !breath!d2 d2 d2 | B2 AB G2 | A2 d2 c2 | B4 A2 | d2 cB AG | e2 cB AG | %14
 F2 (ED) F2 | G6 | G2 G4 | E4 E2 | A6 | A2 E2 E2 | a2 gf ed | b2 gf ed | ^c2 A2 c2 | d6 | %24
 G/D/g/d/ G/D/g/d/ G2 | d2 cB A2 | B2 AB G2 | c4 cB | A6 | d2 cB AG | e2 cB AG | F2 ED F2 | G6 | %33
 G2 G4 | E4 E2 | A6 | A2 E2 E2 | a2 gf ed | b2 gf ed | ^c2 A2 c2 | d6 | d2 cB A2 | B2 AB G2 | %43
 c4 cB | A6 | d2 cB AG | e2 cB AG | F2 ED F2 | G6 | G/F/E/D/ C/B,/A,/G,/ g2 |] %50

